public/uploads/logo.svg

<svg xmlns="http://www.w3.org/2000/svg" xmlns:xlink="http://www.w3.org/1999/xlink" version="1.1" id="Layer_1" x="0px" y="0px" width="100%" viewBox="270 0 532 374" enable-background="new 0 0 932 714" xml:space="preserve">

<path fill="#8CC63F" opacity="1.000000" stroke="none" d=" M581.531372,1.000000   C582.000000,25.462797 582.000000,49.925594 582.000000,75.000000   C579.865173,75.000000 578.094666,75.000000 576.324158,75.000000   C538.332703,75.000000 500.333923,74.546928 462.352509,75.164520   C438.344574,75.554901 416.581177,83.154663 397.636353,98.684929   C378.269073,114.561493 366.143402,134.697495 361.253815,158.892136   C356.821472,180.824127 359.273712,202.377304 369.930176,222.359650   C373.204712,228.499893 373.601501,233.855225 371.010498,240.180817   C365.816040,252.862625 360.992188,265.701691 356.316589,278.585144   C355.544037,280.713898 355.476685,283.983246 356.639435,285.620544   C357.422729,286.723602 361.183746,286.545105 363.197906,285.807373   C377.445648,280.588867 391.615875,275.153229 405.739899,269.606262   C409.300446,268.207916 412.240570,267.924255 415.913727,269.856415   C430.673401,277.620270 446.381958,281.550568 463.225555,281.079956   C477.205719,280.689331 491.205444,281.000000 505.753693,281.000000   C505.753693,263.445587 505.753693,246.057281 505.753693,228.337738   C531.355591,228.337738 556.401855,228.337738 581.724731,228.337738   C581.724731,270.693970 581.724731,312.953003 581.724731,356.000000   C579.897766,356.000000 577.983948,356.000000 576.070129,356.000000   C539.078491,356.000000 502.086761,356.020905 465.095123,355.993622   C433.338745,355.970184 403.324493,348.918304 375.603058,333.182587   C348.149445,317.598907 326.238983,296.270355 309.997772,269.123840   C299.569885,251.694107 291.816803,233.074127 288.406464,213.171173   C285.913727,198.623306 284.778656,183.582962 285.284637,168.839233   C286.139801,143.919891 292.657990,120.032867 304.154999,97.821541   C311.242157,84.129715 320.067322,71.570663 330.361908,59.897804   C345.843384,42.343616 364.216675,28.826365 385.013855,18.644026   C401.494629,10.575009 418.853149,4.771227 437.313995,2.975125   C441.075623,2.609148 444.828705,2.155340 448.792847,1.371011   C493.020905,1.000000 537.041809,1.000000 581.531372,1.000000  z"/>






<path fill="#8CC63F" opacity="1.000000" stroke="none" d=" M495.058838,187.000000   C483.227783,186.757690 476.181244,178.585876 475.909607,166.270660   C475.693726,156.481583 485.990540,147.539154 494.913361,147.856476   C503.491516,148.161530 510.048920,151.204803 513.427979,159.084091   C516.780273,166.900864 515.804382,174.754379 510.094818,181.185760   C506.427948,185.316269 501.340363,187.500504 495.058838,187.000000  z"/>
<path fill="#8CC63F" opacity="1.000000" stroke="none" d=" M410.212524,177.500916   C404.490173,165.197205 409.836487,151.512329 421.794250,148.664307   C429.499329,146.829147 436.417267,148.006287 441.984955,154.050873   C448.017944,160.600632 448.825012,168.359085 445.272308,176.001038   C441.997955,183.044205 436.115082,187.123398 427.716064,187.081909   C420.146698,187.044510 414.476379,184.098587 410.212524,177.500916  z"/>
<path fill="#8CC63F" opacity="1.000000" stroke="none" d=" M573.633301,151.143250   C583.787903,159.833939 583.579163,170.251587 579.075867,177.815765   C574.776672,185.037048 565.497498,188.906616 557.302063,186.724854   C548.530029,184.389603 543.225830,175.442078 542.747559,168.556549   C541.514954,150.809494 561.258423,142.960144 573.633301,151.143250  z"/>






</svg>

<svg xmlns="http://www.w3.org/2000/svg" viewBox="270 0 332 374"><path fill="#8CC63F" d="M581.531 1C582 25.463 582 49.926 582 75h-5.676c-37.991 0-75.99-.453-113.971.165-24.008.39-45.772 7.99-64.717 23.52-19.367 15.876-31.493 36.012-36.382 60.207-4.433 21.932-1.98 43.485 8.676 63.468 3.275 6.14 3.672 11.495 1.08 17.82-5.194 12.683-10.018 25.522-14.693 38.405-.773 2.129-.84 5.398.322 7.036.784 1.103 4.545.924 6.559.186 14.248-5.218 28.418-10.654 42.542-16.2 3.56-1.4 6.5-1.683 10.174.25 14.76 7.763 30.468 11.694 47.312 11.223 13.98-.39 27.98-.08 42.528-.08v-52.662h75.97V356h-5.654c-36.992 0-73.983.02-110.975-.006-31.756-.024-61.77-7.076-89.492-22.811-27.454-15.584-49.364-36.913-65.605-64.06-10.428-17.429-18.181-36.049-21.592-55.952-2.492-14.548-3.627-29.588-3.121-44.332.855-24.92 7.373-48.806 18.87-71.017 7.087-13.692 15.912-26.251 26.207-37.924 15.481-17.554 33.855-31.072 54.652-41.254 16.48-8.069 33.84-13.873 52.3-15.669 3.762-.366 7.515-.82 11.479-1.604C493.02 1 537.042 1 581.53 1z"/><path fill="#8CC63F" d="M495.059 187c-11.831-.242-18.878-8.414-19.15-20.73-.215-9.788 10.082-18.73 19.004-18.414 8.579.306 15.136 3.349 18.515 11.228 3.352 7.817 2.376 15.67-3.333 22.102-3.667 4.13-8.755 6.315-15.036 5.814zM410.213 177.5c-5.723-12.303-.377-25.988 11.581-28.836 7.705-1.835 14.623-.658 20.191 5.387 6.033 6.55 6.84 14.308 3.287 21.95-3.274 7.043-9.157 11.122-17.556 11.08-7.57-.036-13.24-2.982-17.503-9.58zM573.633 151.143c10.155 8.69 9.946 19.109 5.443 26.673-4.3 7.221-13.579 11.09-21.774 8.909-8.772-2.335-14.076-11.283-14.554-18.168-1.233-17.748 18.51-25.597 30.885-17.414z"/></svg>
